brandFactory_export/2.Regular/Flecha arriba_2Regular.svg

<?xml version="1.0" encoding="UTF-8"?>
<svg width="24px" height="24px" viewBox="0 0 24 24" version="1.1" xmlns="http://www.w3.org/2000/svg" xmlns:xlink="http://www.w3.org/1999/xlink">
    <title>2.Regular/Flecha arriba_2Regular</title>
    <g id="Symbols" stroke="none" stroke-width="1" fill="none" fill-rule="evenodd">
        <g id="2.Regular/Flecha-arriba_2Regular" fill="#5CB615" fill-rule="nonzero">
            <path d="M15.6336134,23.6806723 C15.5932773,23.6806723 15.5529412,23.6806723 15.512605,23.6773109 L8.25882353,23.6773109 C7.75462185,23.687395 7.02857143,23.6403361 6.52436975,23.1529412 C6.01680672,22.6621849 5.94957983,21.9428571 5.9394958,21.4420168 L5.9394958,21.4319328 L5.94285714,13.3781513 C5.9394958,13.3310924 5.91260504,13.2537815 5.8789916,13.189916 L1.60336134,13.1966387 L1.59663866,13.1966387 C0.568067227,13.189916 0.218487395,12.6991597 0.100840336,12.4067227 C-0.100840336,11.9058824 0.0840336134,11.3277311 0.605042017,10.8201681 L11.0588235,0.430252101 C11.1596639,0.32605042 11.4521008,0.0302521008 11.8823529,0.0302521008 L11.8890756,0.0302521008 C12.0705882,0.0302521008 12.3428571,0.0907563025 12.6016807,0.359663866 L23.0453782,10.5378151 C23.5798319,11.0487395 23.7747899,11.7579832 23.5327731,12.3428571 C23.3210084,12.8638655 22.8134454,13.1865546 22.205042,13.1764706 L17.8252101,13.1798319 C17.805042,13.189916 17.7781513,13.2067227 17.7579832,13.2235294 L17.7344538,21.4823529 C17.7445378,22.2218487 17.5596639,22.7630252 17.1731092,23.1428571 C16.8168067,23.5058824 16.3092437,23.6806723 15.6336134,23.6806723 L15.6336134,23.6806723 Z M15.5193277,22.3697479 L15.5394958,22.3697479 C15.7882353,22.3764706 16.1142857,22.3563025 16.2621849,22.2151261 C16.4067227,22.0705882 16.4336134,21.7478992 16.4302521,21.4991597 L16.4302521,21.4890756 L16.4537815,13.1428571 C16.4537815,12.4403361 17.189916,11.8756303 17.7983193,11.8756303 L22.2117647,11.8689076 L22.2218487,11.8689076 C22.2857143,11.8689076 22.3159664,11.8554622 22.3226891,11.8521008 C22.3394958,11.8285714 22.3428571,11.6705882 22.1445378,11.4823529 L22.1378151,11.4756303 L11.8722689,1.47226891 L1.52941176,11.7512605 L1.52268908,11.7579832 C1.47563025,11.8016807 1.44201681,11.8420168 1.41512605,11.8756303 C1.46554622,11.8823529 1.52941176,11.8890756 1.61008403,11.8890756 L6.06386555,11.8823529 C6.84705882,11.8823529 7.25714286,12.8537815 7.25714286,13.3781513 L7.25378151,21.4285714 C7.2605042,21.8319328 7.32436975,22.1042017 7.43865546,22.2151261 C7.55294118,22.3260504 7.83193277,22.3798319 8.24537815,22.3697479 L15.5193277,22.3697479 L15.5193277,22.3697479 Z" id="Flecha-arriba_2Regular"></path>
        </g>
    </g>
</svg>

<svg width="24" height="24" viewBox="0 0 24 24" xmlns="http://www.w3.org/2000/svg"><path d="M15.634 23.68c-.04 0-.081 0-.121-.003H8.259c-.504.01-1.23-.037-1.735-.524-.507-.49-.574-1.21-.585-1.711v-.01l.004-8.054a.566.566 0 00-.064-.188l-4.276.007h-.006C.568 13.19.218 12.699.1 12.407c-.202-.501-.017-1.08.504-1.587L11.059.43c.1-.104.393-.4.823-.4h.007c.182 0 .454.06.713.33l10.443 10.178c.535.51.73 1.22.488 1.805-.212.52-.72.844-1.328.833l-4.38.004a.38.38 0 00-.067.044l-.024 8.258c.01.74-.174 1.281-.56 1.66-.357.364-.865.539-1.54.539zm-.115-1.31h.02c.25.006.575-.014.723-.155.145-.144.172-.467.168-.716v-.01l.024-8.346c0-.703.736-1.267 1.344-1.267l4.414-.007h.01a.231.231 0 00.1-.017c.017-.023.02-.181-.177-.37l-.007-.006L11.872 1.472 1.53 11.752l-.006.006a1.04 1.04 0 00-.108.118c.05.006.114.013.195.013l4.454-.007c.783 0 1.193.972 1.193 1.496l-.003 8.05c.007.404.07.676.185.787.114.111.393.165.806.155h7.274z" fill="#5CB615" fill-rule="nonzero"/></svg>
